X:1
T:The Mouseskin Shoe
C:Nollaig Casey
R:reel
S:recorded off of internet
D:Donal Lunny's Coolfin album
Z:Bill Reeder  irtrad-l 2001-6-17
M:4/4
L:1/8
K:Dmix
DdcA ~c3A|GE~E2 Ddce|d3e f2ge|dfed cAAB|
c3e dfeg|f/g/age fded|~c3e dcAG|1~E3G A/B/A GE:|2 ~E3G FDD2||
f3d Adfd|cG~G2 cedc|AdcA dcAG|~E3G FAde|
[1 f3d Adfd|cG~G2 cedc|AdcA dcAG|~E3G FDD2:|
[2 dage a2ge|f/g/age fded|~c3e dcAG|~E3G A/B/A GE||
